icons/anticlockwise-2-line.svg

<svg viewBox="0 0 24 24" fill="currentColor" xmlns="http://www.w3.org/2000/svg">
    <path d="M13.4142 5.99996L15.2426 7.82839L13.8284 9.24261L9.58579 4.99996L13.8284 0.757324L15.2426 2.17154L13.4142 3.99996H16C18.7614 3.99996 21 6.23854 21 8.99996V13H19V8.99996C19 7.34311 17.6569 5.99996 16 5.99996H13.4142ZM15 11V21C15 21.5522 14.5523 22 14 22H4C3.44772 22 3 21.5522 3 21V11C3 10.4477 3.44772 9.99996 4 9.99996H14C14.5523 9.99996 15 10.4477 15 11ZM13 12H5V20H13V12Z"/>
</svg>

<svg xmlns="http://www.w3.org/2000/svg" viewBox="0 0 24 24">
    <g>
        <path fill="none" d="M0 0h24v24H0z"/>
        <path fill-rule="nonzero" d="M13.414 6l1.829 1.828-1.415 1.415L9.586 5 13.828.757l1.415 1.415L13.414 4H16a5 5 0 0 1 5 5v4h-2V9a3 3 0 0 0-3-3h-2.586zM15 11v10a1 1 0 0 1-1 1H4a1 1 0 0 1-1-1V11a1 1 0 0 1 1-1h10a1 1 0 0 1 1 1zm-2 1H5v8h8v-8z"/>
    </g>
</svg>
